X:34
T:Priscilla's Jig
C:Bob McQuillen
S:Bernie Waugh
R:Jig
M:6/8
L:1/8
K:G
D|:\
"G"GAB ~BAB|GFE DGA|"C"~BAB "D"cde|"G"d3 Bcd|
"C"{d}e2c "Am"ABc|"G"{c}d2B "Em"GAB|1\
"Am"cde dcB|"D"~AFD cBA:|2"Am"AFD "D"cBA|"G"G3 G2||
K:D
|:A|\
"D"AFA BAG|"F#m"Ade ~fAA|"Em"gAA fAA|"A"efe dcB|
"D"AFA BAG|"F#m"Ade ~fAA|"Em"gAA "A"fAA|"D"edc d2:|

